app/dist/common/images/kadant.svg

<svg height="18" viewBox="0 0 18 18" width="18" xmlns="http://www.w3.org/2000/svg"><path d="m0 0h18v18h-18z" fill="#181b1e"/><path d="m9 5h6v1h-6zm2.23 2-2.23 5h1.41l.37-.83h2.4l.37.83h1.45l-2.21-5zm1.56 3.23-1.64.01c.26-.7.63-1.52.85-2.24zm-9.79 1.77h1v-1.58l.96-.8 1.67 2.38h1.37l-2.15-3.14 2-1.86h-1.5l-2.35 2.12v-2.12h-1z" fill="#fff"/></svg>

<!-- by TradingView --><svg width="18" height="18" viewBox="0 0 18 18" xmlns="http://www.w3.org/2000/svg"><path fill="#181B1E" d="M0 0h18v18H0z"/><path d="M9 5h6v1H9V5ZM11.23 7 9 12h1.41l.37-.83h2.4l.37.83H15l-2.21-5h-1.56Zm1.56 3.23-1.64.01c.26-.7.63-1.52.85-2.24l.79 2.23ZM3 12h1v-1.58l.96-.8L6.63 12H8L5.85 8.86l2-1.86h-1.5L4 9.12V7H3v5Z" fill="#fff"/></svg>
